art/pdf.svg

<svg version="1.0" viewBox="0 0 695 218" xmlns="http://www.w3.org/2000/svg">
  <defs>
    <linearGradient gradientUnits="userSpaceOnUse" x1="84" y1="4" x2="84" y2="210.063" id="gradient-0">
      <stop offset="0" style="stop-color: rgb(51, 46, 46);"></stop>
      <stop offset="1" style="stop-color: rgb(126, 138, 138);"></stop>
    </linearGradient>
    <radialGradient gradientUnits="userSpaceOnUse" cx="61.896" cy="239.852" r="43.962" id="gradient-3" gradientTransform="matrix(1, 0, 0, 1, 18.859631, -99.617538)">
      <stop offset="0" style="stop-color: rgb(51, 46, 46);"></stop>
      <stop offset="1" style="stop-color: rgb(126, 138, 138);"></stop>
    </radialGradient>
    <linearGradient gradientUnits="userSpaceOnUse" x1="435" y1="4.9" x2="435" y2="209" id="gradient-1">
      <stop offset="0" style="stop-color: rgb(51, 46, 46);"></stop>
      <stop offset="1" style="stop-color: rgb(126, 138, 138);"></stop>
    </linearGradient>
  </defs>
  <path d="M17.5 5.9c-4.8 2.2-7.9 5.4-10 10.3-1.3 3.3-1.5 14.4-1.5 90 0 59.9.3 87.5 1.1 90.3 1.5 5.4 7.4 10.9 13.2 12.4 6.1 1.5 122.5 1.6 128 0 4.7-1.3 10.6-6.3 12.3-10.6 1.1-2.6 1.4-19.7 1.4-91.9V17.7l-2.6-4.5c-1.9-3.3-3.9-5-7.7-6.8L146.5 4H84c-58.6 0-62.7.2-66.5 1.9zM147 15.3c1.4.7 3.3 2.8 4.2 4.7 1.7 3.2 1.8 9.4 1.8 86 0 54.2-.4 83.8-1.1 86.3-2 7.5.7 7.2-64.4 7.5-31.9.2-60 0-62.4-.3-2.8-.4-5.2-1.6-6.7-3.2l-2.4-2.6v-85.8c0-65.6.3-86.4 1.2-88.5 2.5-5.3 2.4-5.3 67.3-5.3 46-.1 60.6.2 62.5 1.2z" style="fill: url(#gradient-0);"></path>
  <path d="M 182 107 L 182 209 L 217 209 L 217 40.9 L 242.3 41.2 C 267.1 41.5 267.6 41.5 273 44.1 C 281.5 48.2 287.5 54.1 291.5 62.5 C 294.7 69 295.1 70.8 295.1 77.8 C 295.1 90.9 289.3 102.1 278.7 109.4 C 271.7 114.2 264.7 116 252.5 116 L 242.5 116 L 236.6 130.8 C 233.3 138.9 230 147 229.2 148.9 L 227.9 152.3 L 248.7 151.7 C 271.2 151.1 276.7 150.2 287.9 144.9 C 301.3 138.7 311.2 129.9 319.7 116.8 C 325.2 108.3 327.7 102.1 329.6 92.2 C 335.8 59.6 319.8 27.7 289.7 13 C 274 5.4 271 5 222.9 5 L 182 5 L 182 107 Z M 348 106.9 L 348 209 L 383 209 L 383 41 L 412.3 41 C 438.8 41 442.2 41.2 449 43.1 C 468.3 48.4 483 60.4 491.1 77.5 C 496.3 88.3 498.1 95.8 498.1 106.5 C 498.2 118.3 496.8 124.4 492.2 134.3 C 485.1 149.3 476 158.9 462.5 165.5 C 451.1 171.2 442 173 425 173 L 410.4 173 L 403.8 189.2 C 400.1 198.2 396.8 206.3 396.4 207.4 C 395.7 209.2 396.6 209.2 420.6 208.7 C 437.3 208.4 448 207.7 453 206.7 C 472.2 202.7 489.6 193.2 503.9 178.9 C 520.7 162.1 530.5 141.7 533.2 118.2 C 538.3 71.7 511.5 28.1 467.3 11.5 C 452.5 5.9 451.3 5.8 397.8 5.3 L 348 4.9 L 348 106.9 Z M 551 107 L 551 209 L 586 209 L 586.2 167.2 L 586.5 125.5 L 628.8 125.2 C 668.5 125 671.1 124.9 670.6 123.2 C 670.3 122.3 668.7 115.9 667 109 C 665.3 102.1 663.5 94.8 662.9 92.8 L 661.9 89 L 624.2 88.8 L 586.5 88.5 L 586.5 41.5 L 637.3 41.2 L 688 41 L 688 5 L 551 5 L 551 107 Z" style="fill: url(#gradient-1);"></path>
  <path d="M 40.518 105.315 C 38.418 106.515 38.118 111.215 39.918 113.015 C 41.618 114.715 84.818 114.715 86.518 113.015 C 88.418 111.115 88.018 106.415 85.818 105.215 C 83.218 103.915 42.818 103.915 40.518 105.315 Z M 38.718 136.215 C 36.318 138.615 36.218 140.115 38.118 142.815 C 39.518 144.615 41.318 144.715 79.718 145.015 C 123.618 145.315 124.718 145.215 124.718 139.715 C 124.718 134.315 123.818 134.215 80.518 134.215 C 42.018 134.215 40.618 134.315 38.718 136.215 Z M 38.318 167.815 C 36.218 169.915 36.318 172.515 38.518 174.515 C 40.218 176.015 44.618 176.215 81.018 176.215 C 124.918 176.215 124.718 176.215 124.718 170.815 C 124.718 166.215 124.618 166.215 81.118 166.215 C 44.918 166.215 39.618 166.415 38.318 167.815 Z" style="fill: url(#gradient-3);"></path>
</svg>

<svg xmlns="http://www.w3.org/2000/svg" version="1.0" viewBox="0 0 695 218"><path d="M17.5 5.9c-4.8 2.2-7.9 5.4-10 10.3-1.3 3.3-1.5 14.4-1.5 90 0 59.9.3 87.5 1.1 90.3 1.5 5.4 7.4 10.9 13.2 12.4 6.1 1.5 122.5 1.6 128 0 4.7-1.3 10.6-6.3 12.3-10.6 1.1-2.6 1.4-19.7 1.4-91.9V17.7l-2.6-4.5c-1.9-3.3-3.9-5-7.7-6.8L146.5 4H84c-58.6 0-62.7.2-66.5 1.9zM147 15.3c1.4.7 3.3 2.8 4.2 4.7 1.7 3.2 1.8 9.4 1.8 86 0 54.2-.4 83.8-1.1 86.3-2 7.5.7 7.2-64.4 7.5-31.9.2-60 0-62.4-.3-2.8-.4-5.2-1.6-6.7-3.2l-2.4-2.6v-85.8c0-65.6.3-86.4 1.2-88.5 2.5-5.3 2.4-5.3 67.3-5.3 46-.1 60.6.2 62.5 1.2z"/><path d="M43.8 94.1c-2.1 1.2-2.4 5.9-.6 7.7 1.7 1.7 44.9 1.7 46.6 0 1.9-1.9 1.5-6.6-.7-7.8-2.6-1.3-43-1.3-45.3.1zM42 125c-2.4 2.4-2.5 3.9-.6 6.6 1.4 1.8 3.2 1.9 41.6 2.2 43.9.3 45 .2 45-5.3 0-5.4-.9-5.5-44.2-5.5-38.5 0-39.9.1-41.8 2zm-.4 31.6c-2.1 2.1-2 4.7.2 6.7 1.7 1.5 6.1 1.7 42.5 1.7 43.9 0 43.7 0 43.7-5.4 0-4.6-.1-4.6-43.6-4.6-36.2 0-41.5.2-42.8 1.6zM182 107v102h35V40.9l25.3.3c24.8.3 25.3.3 30.7 2.9 8.5 4.1 14.5 10 18.5 18.4 3.2 6.5 3.6 8.3 3.6 15.3 0 13.1-5.8 24.3-16.4 31.6-7 4.8-14 6.6-26.2 6.6h-10l-5.9 14.8c-3.3 8.1-6.6 16.2-7.4 18.1l-1.3 3.4 20.8-.6c22.5-.6 28-1.5 39.2-6.8 13.4-6.2 23.3-15 31.8-28.1 5.5-8.5 8-14.7 9.9-24.6 6.2-32.6-9.8-64.5-39.9-79.2C274 5.4 271 5 222.9 5H182v102zm166-.1V209h35V41h29.3c26.5 0 29.9.2 36.7 2.1 19.3 5.3 34 17.3 42.1 34.4 5.2 10.8 7 18.3 7 29 .1 11.8-1.3 17.9-5.9 27.8-7.1 15-16.2 24.6-29.7 31.2-11.4 5.7-20.5 7.5-37.5 7.5h-14.6l-6.6 16.2c-3.7 9-7 17.1-7.4 18.2-.7 1.8.2 1.8 24.2 1.3 16.7-.3 27.4-1 32.4-2 19.2-4 36.6-13.5 50.9-27.8 16.8-16.8 26.6-37.2 29.3-60.7 5.1-46.5-21.7-90.1-65.9-106.7-14.8-5.6-16-5.7-69.5-6.2L348 4.9v102zm203 .1v102h35l.2-41.8.3-41.7 42.3-.3c39.7-.2 42.3-.3 41.8-2-.3-.9-1.9-7.3-3.6-14.2-1.7-6.9-3.5-14.2-4.1-16.2l-1-3.8-37.7-.2-37.7-.3v-47l50.8-.3L688 41V5H551v102z"/></svg>
